22x22/apps/sabnzbdplus.svg

<svg xmlns="http://www.w3.org/2000/svg" width="22" height="22" version="1">
 <path style="opacity:0.2;fill-rule:evenodd" d="m 1.7672918,12.5 c -0.081743,-2.16e-4 -1.63427588,-4.71e-4 -0.076813,1.391602 L 9.972122,21.091797 C 10.279665,21.359195 10.596922,21.494912 11,21.5 c 0.403078,-0.0051 0.720336,-0.140805 1.027878,-0.408203 l 8.281643,-7.200195 C 21.866984,12.499529 20.314451,12.499784 20.232708,12.5 L 11,12.5 l -9.2327082,0 z"/>
 <path style="fill:#ff961b" d="M 6,1 C 5.5845,1 5.005276,1.4460251 5,2 l 0,10.5 6,0 6,0 L 17,2 C 17,1.446 16.4155,1 16,1 Z"/>
 <path style="fill:#ffe330;fill-rule:evenodd" d="m 1.7672918,12 c -0.081743,-2.16e-4 -1.63427588,-4.71e-4 -0.076813,1.391602 L 9.972122,20.591797 C 10.279665,20.859195 10.596922,20.994912 11,21 c 0.403078,-0.0051 0.720336,-0.140805 1.027878,-0.408203 l 8.281643,-7.200195 C 21.866984,11.999529 20.314451,11.999784 20.232708,12 L 11,12 1.7672918,12 Z"/>
 <path style="opacity:0.2;fill:#f4f4f7;fill-rule:evenodd" d="M 1.7675781,12 C 1.7026091,11.999828 0.71311402,12.0023 1.0898438,12.701172 1.2816981,12.501746 1.7247996,12.499887 1.7675781,12.5 L 11,12.5 l 9.232422,0 c 0.04278,-1.13e-4 0.48588,0.0017 0.677734,0.201172 C 21.286886,12.002318 20.297391,11.999828 20.232422,12 L 11,12 1.7675781,12 Z"/>
 <path style="opacity:0.1;fill:#f4f4f7" d="M 6,1 C 5.5845,1 5.005276,1.4460251 5,2 l 0,0.5 c 0.00528,-0.5539749 0.5845,-1 1,-1 l 10,0 c 0.4155,0 1,0.446 1,1 L 17,2 C 17,1.446 16.4155,1 16,1 L 6,1 Z"/>
</svg>

<svg xmlns="http://www.w3.org/2000/svg" width="22" height="22" version="1"><path style="opacity:.2;fill-rule:evenodd" d="M1.767 12.5c-.081 0-1.634 0-.077 1.392l8.282 7.2c.308.267.625.403 1.028.408.403-.005.72-.14 1.028-.408l8.282-7.2c1.557-1.392.004-1.392-.077-1.392H1.767z"/><path style="fill:#ff961b" d="M6 1c-.415 0-.995.446-1 1v10.5h12V2c0-.554-.584-1-1-1z"/><path style="fill:#ffe330;fill-rule:evenodd" d="M1.767 12c-.081 0-1.634 0-.077 1.392l8.282 7.2c.308.267.625.403 1.028.408.403-.005.72-.14 1.028-.408l8.282-7.2C21.867 12 20.314 12 20.233 12H1.767z"/><path style="opacity:.2;fill:#f4f4f7;fill-rule:evenodd" d="M1.768 12c-.065 0-1.055.002-.678.701.192-.2.635-.201.678-.201h18.464c.043 0 .486.002.678.201.377-.699-.613-.701-.678-.701H1.768z"/><path style="opacity:.1;fill:#f4f4f7" d="M6 1c-.415 0-.995.446-1 1v.5c.005-.554.585-1 1-1h10c.415 0 1 .446 1 1V2c0-.554-.584-1-1-1H6z"/></svg>
